images/linkedin.svg

<svg id="Capa_1" enable-background="new 0 0 512 512" height="512" viewBox="0 0 512 512" fill="#0b3b7d" width="512" xmlns="http://www.w3.org/2000/svg"><g><path d="m17.813 161.387h112.571v350.613h-112.571z"/><path d="m74.099 0c-35.344 0-64.099 28.755-64.099 64.099 0 35.345 28.755 64.1 64.099 64.1 35.345 0 64.1-28.755 64.1-64.1-.001-35.344-28.756-64.099-64.1-64.099z"/><path d="m501.965 267.242c-1.486-65.345-54.977-116.531-121.775-116.531-36.983 0-71.326 16.389-94.361 44.446v-33.771h-107.03v350.614h112.572v-202.667c0-27.002 21.968-48.97 48.97-48.97 27.001 0 48.969 21.965 48.969 48.972l.12 202.665h112.57z"/></g></svg>

<svg height="512" fill="#0b3b7d" width="512" xmlns="http://www.w3.org/2000/svg"><path d="M17.813 161.387h112.571V512H17.813zM74.099 0C38.755 0 10 28.755 10 64.099c0 35.345 28.755 64.1 64.099 64.1 35.345 0 64.1-28.755 64.1-64.1C138.198 28.755 109.443 0 74.099 0zm427.866 267.242c-1.486-65.345-54.977-116.531-121.775-116.531-36.983 0-71.326 16.389-94.361 44.446v-33.771h-107.03V512h112.572V309.333c0-27.002 21.968-48.97 48.97-48.97 27.001 0 48.969 21.965 48.969 48.972L389.43 512H502z"/></svg>
